src/icons/hds/ui/phone.svg

<svg xmlns="http://www.w3.org/2000/svg" width="24" height="24" viewBox="0 0 24 24">
  <g fill="none" fill-rule="evenodd">
    <rect width="24" height="24"/>
    <path fill="currentColor" d="M4.88473014,2.50594452 L3.04271859,4.34795607 L3.00925585,4.3830831 C0.572004134,7.06910803 2.78396459,12.4520499 7.19056358,16.8175521 C11.6360685,21.2215974 16.9423138,23.4176638 19.6169201,20.9907643 L21.4940574,19.1152912 C22.1719126,18.437436 22.1490993,17.5519095 21.5517081,16.8428542 L21.4940589,16.7800674 L17.3495329,12.6355414 C16.6716759,11.9576845 15.7861451,11.980498 15.0770931,12.5778988 L15.0143137,12.6355419 L13.968,13.6815 L13.9314473,13.6735948 C13.3457457,13.5299651 12.6895907,13.0717764 11.8081782,12.1903628 L11.6851843,12.0660185 C10.8842783,11.2470747 10.4628528,10.6262359 10.3263189,10.0685898 L10.318,10.0315 L11.3644727,8.98569262 L11.4221156,8.92291316 C12.0195151,8.21386101 12.0423326,7.32832823 11.3644749,6.6504705 L7.21994889,2.50594452 L7.15716994,2.4483019 C6.44811791,1.85090103 5.56258713,1.82808753 4.88473014,2.50594452 Z M6.052,4.1665 L9.7035,7.818 L8.27585766,9.24588265 L8.27585766,9.66009584 C8.27585766,11.0150155 8.9625438,12.1731537 10.3939637,13.6045754 C11.8258746,15.0364882 12.985114,15.7241578 14.3399131,15.7241578 L14.7541271,15.7241578 L16.182,14.2965 L19.833,17.9475 L18.2378323,19.5430892 C16.713248,20.9248862 12.3595197,19.1230328 8.59813618,15.3967286 L8.44618724,15.2447313 C4.87570374,11.6383162 3.13149414,7.39796859 4.43356165,5.79326914 L4.481,5.7375 L6.052,4.1665 Z"/>
  </g>
</svg>

<svg role="img" xmlns="http://www.w3.org/2000/svg" viewBox="0 0 24 24"><g fill="none" fill-rule="evenodd"><path d="M0 0h24v24H0z"/><path fill="currentColor" d="M4.885 2.506L3.043 4.348l-.034.035C.572 7.07 2.784 12.452 7.191 16.818c4.445 4.404 9.751 6.6 12.426 4.173l1.877-1.876c.678-.678.655-1.563.058-2.272l-.058-.063-4.144-4.144c-.678-.678-1.564-.656-2.273-.058l-.063.058-1.046 1.046-.037-.008c-.585-.144-1.241-.602-2.123-1.484l-.123-.124c-.8-.819-1.222-1.44-1.359-1.997l-.008-.038 1.046-1.045.058-.063c.598-.71.62-1.595-.058-2.273L7.22 2.506l-.063-.058c-.709-.597-1.594-.62-2.272.058zm1.167 1.66l3.652 3.652-1.428 1.428v.414c0 1.355.687 2.513 2.118 3.945 1.432 1.431 2.591 2.12 3.946 2.12h.414l1.428-1.428 3.651 3.65-1.595 1.596c-1.525 1.382-5.878-.42-9.64-4.146l-.152-.152c-3.57-3.607-5.315-7.847-4.012-9.452l.047-.056 1.571-1.57z"/></g></svg>
